img/Ico/Location.svg

<svg width="22" height="22" viewBox="0 0 22 22" fill="none" xmlns="http://www.w3.org/2000/svg">
<path fill-rule="evenodd" clip-rule="evenodd" d="M11.0019 5.6C9.34504 5.6 8.00189 6.94315 8.00189 8.6C8.00189 10.2569 9.34504 11.6 11.0019 11.6C12.6587 11.6 14.0019 10.2569 14.0019 8.6C14.0019 6.94315 12.6587 5.6 11.0019 5.6ZM9.20189 8.6C9.20189 7.60589 10.0078 6.8 11.0019 6.8C11.996 6.8 12.8019 7.60589 12.8019 8.6C12.8019 9.59411 11.996 10.4 11.0019 10.4C10.0078 10.4 9.20189 9.59411 9.20189 8.6Z" fill="black"/>
<path fill-rule="evenodd" clip-rule="evenodd" d="M10.507 19.7392C10.507 19.7393 10.5071 19.7393 11.0019 19.4L10.507 19.7392C10.6189 19.9024 10.8041 20 11.0019 20C11.1997 20 11.3849 19.9025 11.4967 19.7393L11.0019 19.4C11.4967 19.7393 11.4967 19.7394 11.4967 19.7393L11.6729 19.482C11.7857 19.317 11.9482 19.079 12.1469 18.7871C12.5445 18.2034 13.0874 17.4037 13.6687 16.54C14.8272 14.8186 16.1508 12.8248 16.7724 11.7887L16.7776 11.7798C17.3357 10.8123 17.6206 9.71143 17.6019 8.59473C17.6005 6.8462 16.9053 5.16959 15.6688 3.9331C14.4311 2.69536 12.7523 2 11.0019 2C9.25147 2 7.57274 2.69536 6.335 3.9331C5.0989 5.16919 4.40375 6.84511 4.40191 8.59302C4.3771 9.71239 4.65744 10.8174 5.21294 11.7897C5.21575 11.7946 5.21862 11.7994 5.22156 11.8043C5.8482 12.8324 7.17364 14.8217 8.33398 16.542C8.91592 17.4048 9.45912 18.204 9.8568 18.7875C10.0557 19.0792 10.2182 19.3171 10.331 19.4821L10.507 19.7392ZM7.18353 4.78162C8.19622 3.76893 9.56973 3.2 11.0019 3.2C12.4341 3.2 13.8076 3.76893 14.8203 4.78162C15.833 5.79432 16.4019 7.16783 16.4019 8.6L16.402 8.61055C16.4178 9.50977 16.1892 10.3964 15.7407 11.1758C15.1371 12.1811 13.8348 14.144 12.6731 15.87C12.0934 16.7313 11.5518 17.5291 11.1551 18.1116L11.0018 18.3366L10.8484 18.1116C10.4514 17.5292 9.90938 16.7317 9.32883 15.871C8.16703 14.1485 6.86204 12.1892 6.25076 11.1871C5.80512 10.4042 5.58075 9.51473 5.60174 8.61398L5.6019 8.6C5.6019 7.16783 6.17083 5.79432 7.18353 4.78162Z" fill="black"/>
<path d="M11.0019 19.4C10.5071 19.7393 10.507 19.7393 10.507 19.7392M11.0019 19.4L10.507 19.7392M11.0019 19.4L11.4967 19.7393M11.0019 19.4C11.4967 19.7393 11.4967 19.7394 11.4967 19.7393M10.507 19.7392C10.6189 19.9024 10.8041 20 11.0019 20C11.1997 20 11.3849 19.9025 11.4967 19.7393M10.507 19.7392L10.331 19.4821C10.2182 19.3171 10.0557 19.0792 9.8568 18.7875C9.45912 18.204 8.91592 17.4048 8.33398 16.542C7.17364 14.8217 5.8482 12.8324 5.22156 11.8043C5.21862 11.7994 5.21575 11.7946 5.21294 11.7897C4.65744 10.8174 4.3771 9.71239 4.40191 8.59302C4.40375 6.84511 5.0989 5.16919 6.335 3.9331C7.57274 2.69536 9.25147 2 11.0019 2C12.7523 2 14.4311 2.69536 15.6688 3.9331C16.9053 5.16959 17.6005 6.8462 17.6019 8.59473C17.6206 9.71143 17.3357 10.8123 16.7776 11.7798L16.7724 11.7887C16.1508 12.8248 14.8272 14.8186 13.6687 16.54C13.0874 17.4037 12.5445 18.2034 12.1469 18.7871C11.9482 19.079 11.7857 19.317 11.6729 19.482L11.4967 19.7393M11.0019 3.2C9.56973 3.2 8.19622 3.76893 7.18353 4.78162C6.17083 5.79432 5.6019 7.16783 5.6019 8.6L5.60174 8.61398C5.58075 9.51473 5.80512 10.4042 6.25076 11.1871C6.86204 12.1892 8.16703 14.1485 9.32883 15.871C9.90938 16.7317 10.4514 17.5292 10.8484 18.1116L11.0018 18.3366L11.1551 18.1116C11.5518 17.5291 12.0934 16.7313 12.6731 15.87C13.8348 14.144 15.1371 12.1811 15.7407 11.1758C16.1892 10.3964 16.4178 9.50977 16.402 8.61055L16.4019 8.6C16.4019 7.16783 15.833 5.79432 14.8203 4.78162C13.8076 3.76893 12.4341 3.2 11.0019 3.2ZM11.0019 6.8C10.0078 6.8 9.20189 7.60589 9.20189 8.6C9.20189 9.59411 10.0078 10.4 11.0019 10.4C11.996 10.4 12.8019 9.59411 12.8019 8.6C12.8019 7.60589 11.996 6.8 11.0019 6.8ZM8.00189 8.6C8.00189 6.94315 9.34504 5.6 11.0019 5.6C12.6587 5.6 14.0019 6.94315 14.0019 8.6C14.0019 10.2569 12.6587 11.6 11.0019 11.6C9.34504 11.6 8.00189 10.2569 8.00189 8.6Z" stroke="black" stroke-width="0.5" stroke-linecap="round" stroke-linejoin="round"/>
</svg>

<svg width="22" height="22" fill="none" xmlns="http://www.w3.org/2000/svg"><path fill-rule="evenodd" clip-rule="evenodd" d="M11.002 5.6a3 3 0 1 0 0 6 3 3 0 0 0 0-6zm-1.8 3a1.8 1.8 0 1 1 3.6 0 1.8 1.8 0 0 1-3.6 0z" fill="#000"/><path fill-rule="evenodd" clip-rule="evenodd" d="m10.507 19.74.495-.34-.495.34a.6.6 0 0 0 .99 0l-.495-.34.495.34.176-.258a424.446 424.446 0 0 0 1.996-2.942c1.158-1.721 2.482-3.715 3.103-4.751l.006-.01a6.168 6.168 0 0 0 .824-3.184 6.6 6.6 0 0 0-13.2-.002 6.168 6.168 0 0 0 .82 3.211c.626 1.028 1.952 3.018 3.112 4.738a570.591 570.591 0 0 0 1.997 2.94l.176.257zM7.184 4.781A5.4 5.4 0 0 1 16.402 8.6v.01c.016.9-.213 1.786-.661 2.566-.604 1.005-1.906 2.968-3.068 4.694a504.2 504.2 0 0 1-1.518 2.242l-.153.225-.154-.225c-.397-.583-.939-1.38-1.52-2.241-1.161-1.723-2.466-3.682-3.077-4.684a4.968 4.968 0 0 1-.65-2.573V8.6a5.4 5.4 0 0 1 1.583-3.818z" fill="#000"/><path d="m11.002 19.4-.495.34m.495-.34-.495.34m.495-.34.495.34m-.495-.34.495.34m-.99 0a.6.6 0 0 0 .99 0m-.99 0-.176-.258a704.856 704.856 0 0 1-1.997-2.94c-1.16-1.72-2.486-3.71-3.112-4.738a6.168 6.168 0 0 1-.82-3.211 6.6 6.6 0 0 1 13.2.002 6.168 6.168 0 0 1-.824 3.185l-.006.009c-.621 1.036-1.945 3.03-3.103 4.751a496.248 496.248 0 0 1-1.996 2.942l-.176.257M11.002 3.2a5.4 5.4 0 0 0-5.4 5.4v.014c-.021.9.203 1.79.649 2.573.611 1.002 1.916 2.962 3.078 4.684.58.86 1.122 1.658 1.52 2.24l.153.226.153-.225a504.2 504.2 0 0 0 1.518-2.242c1.162-1.726 2.464-3.689 3.068-4.694.448-.78.677-1.666.661-2.565V8.6a5.4 5.4 0 0 0-5.4-5.4zm0 3.6a1.8 1.8 0 1 0 0 3.6 1.8 1.8 0 0 0 0-3.6zm-3 1.8a3 3 0 1 1 6 0 3 3 0 0 1-6 0z" stroke="#000" stroke-width=".5" stroke-linecap="round" stroke-linejoin="round"/></svg>
